X:3523
T:Lancer's
O:england
M:6/8
L:1/8
S:Eileen Healy, Ballinlough, Co. Cork
R:Jig
N:VC doesn't repeat the A part.  I do.
D:_The Brass Fiddle_ (Vincent Campbell)
K:D
~f3 fed|A3 ABd|~f3 fed|efe e2f|
~g3 bag|f2a agf|e2g f2e|d3 d2e:|
|:fBB fBB|g=cc gcc|add add|a2b bag|
fBB fBB|g=cc gcc|~f3 edc|d3 ~g3:||


